X: 23377
T: Leitrim, The
R: polka
M: 2/4
K: Dmajor
a/g/f/e/|:d2 d>A|Bd AF|DF Ad|fa fd|
e/f/g/e/ dA|Bd AF|Da fd|1 ed d/c/B/c/:|2 ed d/c/d/e/||
|:fa ae|fa fe|fa de|fa ed/e/|
fa ag/a/|ba fd|Aa fd|1 ed d/c/d/e/:|2 ed d/c/B/c/||

